X:1
T:Title
%%score { 1 | ( 2 3 ) }
L:1/8
Q:1/4=106
M:4/4
K:C
V:1 treble nm="Grand Piano"
V:2 bass 
V:3 bass 
V:1
 [EG]2 [EG]>[FA] [EG]2 [CE][EG] | [Gc]2 d2 e4 | [Bd]>[Bd] [Bd]>[Gc] [GB]2 z2 | %3
w: Ira~D.~Sankey * * * * *|||
 [Ge]>[Ge] [Ge]>[Fd] [Ec]2 z2 | [EG]2 [EG]>[FA] [EG]2 [CE][EG] | [Gc]2 [Gd]2 [Ge]4 | %6
w: |||
 [FGd]>[FGd] [FGd]>[EGc] [DGB]2 [C^FA]2 | G6 z2 | B2 B>c d2 G2 | [EG]2 [Ec]2 [Ge]4 | %10
w: ||||
 [^Ge]2 [GB]>[GB] [Ac]2 [A^c]2 | [Ad]2 [^FA]2 [GB]4 | [Ec]2 [Ec]>[Ec] [Fc]2 [B,GB][FA] | %13
w: |||
 [CEG]2 [Ec]2 [Ge]4 | [Fd]>[Fd] [Ad][Ad] [Gc]2 [DFB]2 | [Ec]6 z2 |] %16
w: |||
V:2
 [C,C]2 [C,C]>[C,C] [C,C]2 [C,G,][C,C] | [E,C]2[K:treble] [G,B,G]2 [CG]4 | %2
 [G,F]>[G,F] [G,F]>[G,E] [G,D]2 z2 | [C,C]>[C,C] [C,C]>[C,G,] [C,G,]2 z2 | %4
 [C,C]2 [C,C]>[C,C] [C,C]2 [C,G,][C,C] | [E,C]2 [D,B,]2 [C,C]4 | B,,>B,, B,,>C, D,2 D,2 | %7
 [G,B,]6 z2 | [G,DF]2 [G,DF]>[G,CE] [G,B,G]2 [G,B,F]2 | [C,C]2 [C,G,]2 [C,C]4 | %10
 [E,B,]2 [E,E]>[E,E] [A,E]2 [G,E]2 | [^F,D]2 [D,D]2 [G,D]4 | [C,C]2 [C,G,]>[C,G,] [F,A,]2 z C | %13
 C,2 [C,G,]2 [C,C]4 | [F,A,]>[F,A,] [F,C][F,F] [G,E]2 [G,,G,]2 | [C,C]6 z2 |] %16
V:3
 x8 | x2[K:treble] x6 | x8 | x8 | x8 | x8 | x8 | x8 | x8 | x8 | x8 | x8 | z4 z2 F,2 | x8 | x8 | %15
 x8 |] %16

